Papirus/64x64/apps/tuxtype.svg

<?xml version="1.0" encoding="UTF-8" standalone="no"?>
<svg
   id="_图层_1"
   version="1.1"
   viewBox="0 0 64 64" width="64" height="64"
   sodipodi:docname="tuxtype.svg"
   xml:space="preserve"
   inkscape:version="1.4 (e7c3feb100, 2024-10-09)"
   xmlns:inkscape="http://www.inkscape.org/namespaces/inkscape"
   xmlns:sodipodi="http://sodipodi.sourceforge.net/DTD/sodipodi-0.dtd"
   xmlns="http://www.w3.org/2000/svg"
   xmlns:svg="http://www.w3.org/2000/svg"><sodipodi:namedview
     id="namedview26"
     pagecolor="#505050"
     bordercolor="#eeeeee"
     borderopacity="1"
     inkscape:showpageshadow="0"
     inkscape:pageopacity="0"
     inkscape:pagecheckerboard="0"
     inkscape:deskcolor="#505050"
     inkscape:zoom="10.6875"
     inkscape:cx="32"
     inkscape:cy="32"
     inkscape:window-width="1920"
     inkscape:window-height="939"
     inkscape:window-x="0"
     inkscape:window-y="34"
     inkscape:window-maximized="1"
     inkscape:current-layer="_图层_1" /><!-- Generator: Adobe Illustrator 29.0.1, SVG Export Plug-In . SVG Version: 2.1.0 Build 192)  --><defs
     id="defs6"><style
       id="style1">
      .st0 {
        fill-opacity: .5;
      }

      .st0, .st1, .st2, .st3, .st4, .st5, .st6, .st7 {
        fill: #fff;
      }

      .st8 {
        fill: #133c9a;
      }

      .st2, .st9 {
        display: none;
      }

      .st3 {
        fill-opacity: .2;
      }

      .st4 {
        fill-opacity: .9;
      }

      .st10 {
        fill: #3370ff;
      }

      .st11 {
        fill: url(#_未命名的渐变_3);
      }

      .st12 {
        fill: url(#_未命名的渐变);
      }

      .st5 {
        fill-opacity: .3;
      }

      .st6 {
        fill-opacity: 0;
      }

      .st7 {
        fill-opacity: .7;
      }

      .st13 {
        fill: #00d6b9;
      }

      .st14 {
        fill: url(#_未命名的渐变_2);
      }
    </style><radialGradient
       id="_未命名的渐变"
       data-name="未命名的渐变"
       cx="123.9"
       cy="-40.2"
       fx="123.9"
       fy="-40.2"
       r="59.4"
       gradientTransform="translate(-26.8 25.5) scale(.6 -.7)"
       gradientUnits="userSpaceOnUse"><stop
         offset="0"
         stop-color="#db202e"
         id="stop1" /><stop
         offset="1"
         stop-color="#e01b24"
         id="stop2" /></radialGradient><radialGradient
       id="_未命名的渐变_2"
       data-name="未命名的渐变 2"
       cx="67.6"
       cy="26.8"
       fx="67.6"
       fy="26.8"
       r="105.2"
       gradientTransform="translate(-26.6 25.3) scale(.6 -.7)"
       gradientUnits="userSpaceOnUse"><stop
         offset="0"
         stop-color="#ffb648"
         id="stop3" /><stop
         offset="1"
         stop-color="#ff7800"
         stop-opacity="0"
         id="stop4" /></radialGradient><radialGradient
       id="_未命名的渐变_3"
       data-name="未命名的渐变 3"
       cx="61.7"
       cy="18.6"
       fx="61.7"
       fy="18.6"
       r="68"
       gradientTransform="translate(-26.8 25.8) scale(.6 -.7)"
       gradientUnits="userSpaceOnUse"><stop
         offset="0"
         stop-color="#c64600"
         id="stop5" /><stop
         offset="1"
         stop-color="#a51d2d"
         id="stop6" /></radialGradient></defs><path
     class="st1"
     d="M47.5,64.1H13.8c-7.6,0-13.8-6.3-13.8-13.8V13.7C0,6.2,6.2,0,13.7,0h36.6c7.5,0,13.7,6.2,13.7,13.7v36.6c0,7.5-6.2,13.7-13.7,13.7h-2.9.1Z"
     id="path6"
     style="fill:#999999;fill-opacity:1" /><g
     id="g26"
     transform="matrix(0.82957394,0,0,0.83894162,5.9214704,5.0618829)"><path
       style="opacity:0.2"
       d="m 50.912,28.016 c 0.513,-1.736 0.796,-3.567 0.796,-5.467 0,-10.796 -8.82,-19.5479 -19.706,-19.5479 -10.88,0 -19.704,8.7499 -19.704,19.5479 0,1.9 0.285,3.731 0.796,5.467 -2.481,1.978 -12.11166,10.546 -8.1497,21.656 0,0 3.3516,-0.284 6.1047,-5.334 0.836,3.232 2.393,6.167 4.517,8.621 -3.111,0.909 -5.221,2.672 -5.221,4.695 0,2.953 4.492,5.346 10.03,5.346 3.759,0 7.032,-1.104 8.748,-2.733 0.945,0.124 1.898,0.209 2.876,0.209 0.979,0 1.934,-0.085 2.875,-0.209 1.72,1.628 4.991,2.733 8.751,2.733 5.54,0 10.034,-2.395 10.034,-5.346 0,-2.021 -2.112,-3.786 -5.223,-4.695 2.122,-2.454 3.683,-5.389 4.519,-8.621 2.751,5.048 6.098,5.334 6.098,5.334 3.968,-11.113 -5.662,-19.681 -8.142,-21.656 z"
       id="path1" /><path
       style="fill:#4f4f4f"
       d="m 50.911843,27.016163 c 0.512698,-1.736413 0.795836,-3.567785 0.795836,-5.467376 0,-10.795753 -8.819961,-19.5479142 -19.705913,-19.5479142 -10.879952,0 -19.703713,8.7503612 -19.703713,19.5479142 0,1.899611 0.285038,3.730983 0.795836,5.467376 -2.481189,1.977411 -12.11154649,10.545553 -8.1495639,21.655904 0,0 3.3515852,-0.284658 6.1045729,-5.334376 0.835997,3.231786 2.39319,6.167573 4.51678,8.621362 -3.110586,0.908996 -5.220777,2.671988 -5.220777,4.694979 0,2.952787 4.491781,5.345777 10.030156,5.345777 3.759184,0 7.032369,-1.104475 8.748362,-2.732788 0.945036,0.123359 1.897751,0.208759 2.875387,0.208759 0.979476,0 1.934092,-0.0854 2.875387,-0.208759 1.719833,1.628233 4.991178,2.732788 8.750362,2.732788 5.540176,0 10.033956,-2.39499 10.033956,-5.345777 0,-2.020991 -2.111991,-3.785983 -5.222577,-4.694979 2.12159,-2.453789 3.682584,-5.389576 4.51858,-8.621362 2.750988,5.047978 6.098773,5.334376 6.098773,5.334376 C 63.02087,37.559116 53.390712,28.990954 50.911323,27.016163 Z"
       id="path2" /><circle
       style="fill:#ffffff"
       cx="22"
       cy="16"
       r="4"
       id="circle2" /><circle
       style="fill:#ffffff"
       cx="42"
       cy="16"
       r="4"
       id="circle3" /><ellipse
       style="fill:#ffffff"
       cx="32"
       cy="38"
       rx="14"
       ry="16"
       id="ellipse3" /><circle
       style="fill:#303030"
       cx="24"
       cy="17"
       r="2"
       id="circle4" /><circle
       style="fill:#303030"
       cx="44"
       cy="17"
       r="2"
       id="circle5" /><path
       style="opacity:0.1;fill:#ffffff"
       d="m 32.001953,2 c -10.879952,0 -19.703125,8.751275 -19.703125,19.548828 0,0.138605 0.01261,0.274241 0.01563,0.41211 0.314231,-10.52472 9.006272,-18.9589849 19.6875,-18.9589849 10.687118,0 19.375354,8.4359049 19.689453,18.9589849 0.003,-0.137867 0.01563,-0.273506 0.01563,-0.41211 C 51.707031,10.753075 42.887905,2 32.001953,2 Z M 12.882812,27.195312 C 10.585384,29.06285 3.7543535,35.332808 4.0117188,43.800781 4.298805,35.621299 11.070924,29.627738 13.09375,28.015625 13.014305,27.745561 12.951112,27.469871 12.882812,27.195312 Z m 38.240235,0 c -0.06843,0.274561 -0.131197,0.550246 -0.210938,0.820313 2.020894,1.609607 8.7893,7.601363 9.076172,15.779297 0.258402,-8.467387 -6.569614,-14.734448 -8.865234,-16.59961 z M 14.925781,52.175781 c -2.749278,0.954651 -4.580078,2.600497 -4.580078,4.478516 0,0.190731 0.02009,0.378887 0.05664,0.564453 0.280072,-1.837221 2.28051,-3.417115 5.164062,-4.259766 -0.220897,-0.255244 -0.432159,-0.517737 -0.640625,-0.783203 z m 34.148438,0.002 c -0.207841,0.264718 -0.418582,0.526699 -0.638672,0.78125 2.882966,0.84248 4.885065,2.424365 5.166015,4.259766 0.03658,-0.185488 0.05664,-0.37383 0.05664,-0.564453 0,-1.876501 -1.833653,-3.521755 -4.583983,-4.476563 z"
       id="path5" /><g
       style="opacity:0.2"
       id="g6"><path
         d="m 32,32 a 8,8 0 0 0 -8,8 8,8 0 0 0 8,8 8,8 0 0 0 8,-8 8,8 0 0 0 -8,-8 z m 0,3 a 5,5 0 0 1 5,5 5,5 0 0 1 -5,5 5,5 0 0 1 -5,-5 5,5 0 0 1 5,-5 z"
         id="path6-3" /><rect
         width="3"
         height="16"
         x="37"
         y="32"
         rx="1.5"
         ry="1.5"
         id="rect6" /></g><path
       style="fill:#f34235"
       d="m 32,31 a 8,8 0 0 0 -8,8 8,8 0 0 0 8,8 8,8 0 0 0 8,-8 8,8 0 0 0 -8,-8 z m 0,3 a 5,5 0 0 1 5,5 5,5 0 0 1 -5,5 5,5 0 0 1 -5,-5 5,5 0 0 1 5,-5 z"
       id="path7" /><rect
       style="fill:#f34235"
       width="3"
       height="16"
       x="37"
       y="31"
       rx="1.5"
       ry="1.5"
       id="rect7" /><path
       style="opacity:0.2"
       d="m 28,19 h 8 c -0.641,6.163 -4,12 -4,12 0,0 -4,-6.927 -4,-12 z"
       id="path8" /><path
       style="fill:#cd5252"
       d="m 28,18 h 8 c -0.641,6.163 -4,12 -4,12 0,0 -4,-6.927 -4,-12 z"
       id="path9" /></g></svg>

<svg xmlns="http://www.w3.org/2000/svg" width="64" height="64" version="1">
 <path style="opacity:0.2" d="M 50.912,28.016 C 51.425,26.28 51.708,24.449 51.708,22.549 51.708,11.753 42.888,3.0011 32.002,3.0011 21.122,3.0011 12.298,11.751 12.298,22.549 12.298,24.449 12.583,26.28 13.094,28.016 10.613,29.994 0.98234,38.562 4.9443,49.672 4.9443,49.672 8.2959,49.388 11.049,44.338 11.885,47.57 13.442,50.505 15.566,52.959 12.455,53.868 10.345,55.631 10.345,57.654 10.345,60.607 14.837,63 20.375,63 24.134,63 27.407,61.896 29.123,60.267 30.068,60.391 31.021,60.476 31.999,60.476 32.978,60.476 33.933,60.391 34.874,60.267 36.594,61.895 39.865,63 43.625,63 49.165,63 53.659,60.605 53.659,57.654 53.659,55.633 51.547,53.868 48.436,52.959 50.558,50.505 52.119,47.57 52.955,44.338 55.706,49.386 59.053,49.672 59.053,49.672 63.021,38.559 53.391,29.991 50.911,28.016 Z"/>
 <path style="fill:#4f4f4f" d="m 50.911843,27.016163 c 0.512698,-1.736413 0.795836,-3.567785 0.795836,-5.467376 0,-10.795753 -8.819961,-19.5479142 -19.705913,-19.5479142 -10.879952,0 -19.703713,8.7503612 -19.703713,19.5479142 0,1.899611 0.285038,3.730983 0.795836,5.467376 -2.481189,1.977411 -12.11154649,10.545553 -8.1495639,21.655904 0,0 3.3515852,-0.284658 6.1045729,-5.334376 0.835997,3.231786 2.39319,6.167573 4.51678,8.621362 -3.110586,0.908996 -5.220777,2.671988 -5.220777,4.694979 0,2.952787 4.491781,5.345777 10.030156,5.345777 3.759184,0 7.032369,-1.104475 8.748362,-2.732788 0.945036,0.123359 1.897751,0.208759 2.875387,0.208759 0.979476,0 1.934092,-0.0854 2.875387,-0.208759 1.719833,1.628233 4.991178,2.732788 8.750362,2.732788 5.540176,0 10.033956,-2.39499 10.033956,-5.345777 0,-2.020991 -2.111991,-3.785983 -5.222577,-4.694979 2.12159,-2.453789 3.682584,-5.389576 4.51858,-8.621362 2.750988,5.047978 6.098773,5.334376 6.098773,5.334376 C 63.02087,37.559116 53.390712,28.990954 50.911323,27.016163 Z"/>
 <circle style="fill:#ffffff" cx="22" cy="16" r="4"/>
 <circle style="fill:#ffffff" cx="42" cy="16" r="4"/>
 <ellipse style="fill:#ffffff" cx="32" cy="38" rx="14" ry="16"/>
 <circle style="fill:#303030" cx="24" cy="17" r="2"/>
 <circle style="fill:#303030" cx="44" cy="17" r="2"/>
 <path style="fill:#ffffff;opacity:0.1" d="M 32.001953 2 C 21.122001 2 12.298828 10.751275 12.298828 21.548828 C 12.298828 21.687433 12.311441 21.823069 12.314453 21.960938 C 12.628684 11.436218 21.320725 3.0019531 32.001953 3.0019531 C 42.689071 3.0019531 51.377307 11.437858 51.691406 21.960938 C 51.6944 21.823071 51.707031 21.687432 51.707031 21.548828 C 51.707031 10.753075 42.887905 2 32.001953 2 z M 12.882812 27.195312 C 10.585384 29.06285 3.7543535 35.332808 4.0117188 43.800781 C 4.298805 35.621299 11.070924 29.627738 13.09375 28.015625 C 13.014305 27.745561 12.951112 27.469871 12.882812 27.195312 z M 51.123047 27.195312 C 51.054614 27.469873 50.99185 27.745558 50.912109 28.015625 C 52.933003 29.625232 59.701409 35.616988 59.988281 43.794922 C 60.246683 35.327535 53.418667 29.060474 51.123047 27.195312 z M 14.925781 52.175781 C 12.176503 53.130432 10.345703 54.776278 10.345703 56.654297 C 10.345703 56.845028 10.36579 57.033184 10.402344 57.21875 C 10.682416 55.381529 12.682854 53.801635 15.566406 52.958984 C 15.345509 52.70374 15.134247 52.441247 14.925781 52.175781 z M 49.074219 52.177734 C 48.866378 52.442452 48.655637 52.704433 48.435547 52.958984 C 51.318513 53.801464 53.320612 55.383349 53.601562 57.21875 C 53.638141 57.033262 53.658203 56.84492 53.658203 56.654297 C 53.658203 54.777796 51.82455 53.132542 49.074219 52.177734 z"/>
 <g style="opacity:0.2">
  <path d="M 32,32 A 8,8 0 0 0 24,40 8,8 0 0 0 32,48 8,8 0 0 0 40,40 8,8 0 0 0 32,32 Z M 32,35 A 5,5 0 0 1 37,40 5,5 0 0 1 32,45 5,5 0 0 1 27,40 5,5 0 0 1 32,35 Z"/>
  <rect width="3" height="16" x="37" y="32" rx="1.5" ry="1.5"/>
 </g>
 <path style="fill:#f34235" d="M 32,31 A 8,8 0 0 0 24,39 8,8 0 0 0 32,47 8,8 0 0 0 40,39 8,8 0 0 0 32,31 Z M 32,34 A 5,5 0 0 1 37,39 5,5 0 0 1 32,44 5,5 0 0 1 27,39 5,5 0 0 1 32,34 Z"/>
 <rect style="fill:#f34235" width="3" height="16" x="37" y="31" rx="1.5" ry="1.5"/>
 <path style="opacity:0.2" d="M 28,19 H 36 C 35.359,25.163 32,31 32,31 32,31 28,24.073 28,19 Z"/>
 <path style="fill:#cd5252" d="M 28,18 H 36 C 35.359,24.163 32,30 32,30 32,30 28,23.073 28,18 Z"/>
</svg>
